X:6330
T:Glen Of Aherlow
R:Reel
S:Mary Macnamara, PJ % Martin Hayes
H:
N:
D:
Z:Adrian Scahill
M:4/4
L:1/8
K:D
B2AF BFAF|E3F EDB,A|B2AF BFAF|DFAF FEEA|\
B2AF BFAF|E3F EDB,A,|B,EE2 +DB,+EFA|1 dBAF FEEA:|2 dBAF FEE2||\
eBB2 egfe|d2fd Adfd|eBB2 egfe|dBAF FEE2|\
eBB2 egfe|d2fd Adfd|B3d egf+ce+|dBAF FEE2:||\


